src/icons/svg/github.svg

<?xml version="1.0" encoding="UTF-8"?>
<svg width="128px" height="128px" viewBox="0 0 128 128" version="1.1" xmlns="http://www.w3.org/2000/svg" xmlns:xlink="http://www.w3.org/1999/xlink">
    <!-- Generator: Sketch 64 (93537) - https://sketch.com -->
    <title>github</title>
    <desc>Created with Sketch.</desc>
    <g id="页面-1" stroke="none" stroke-width="1"  fill-rule="evenodd">
        <g id="github"  fill-rule="nonzero">
            <path d="M63.9428571,0.0438541745 C28.6142857,0.0292397661 0,29.2982456 0,65.4239766 C0,93.9912281 17.9,118.274854 42.8285714,127.192982 C46.1857143,128.055556 45.6714286,125.614035 45.6714286,123.947368 L45.6714286,112.616959 C26.2857143,114.94152 25.5,101.812865 24.2,99.619883 C21.5714286,95.0292398 15.3571429,93.8596491 17.2142857,91.6666667 C21.6285714,89.3421053 26.1285714,92.251462 31.3428571,100.131579 C35.1142857,105.847953 42.4714286,104.883041 46.2,103.932749 C47.0142857,100.497076 48.7571429,97.4269006 51.1571429,95.0438542 C31.0714286,91.3596491 22.7,78.8157895 22.7,63.9035088 C22.7,56.6666667 25.0285714,50.0146199 29.6,44.6491228 C26.6857143,35.8040936 29.8714286,28.2309942 30.3,27.1052632 C38.6,26.3450292 47.2285714,33.1871345 47.9,33.7280702 C52.6142857,32.4269006 58,31.7397661 64.0285714,31.7397661 C70.0857143,31.7397661 75.4857143,32.4561404 80.2428571,33.7719298 C81.8571429,32.5146199 89.8571429,26.6374269 97.5714286,27.3538012 C97.9857143,28.4795322 101.1,35.877193 98.3571429,44.6052632 C102.985714,49.9853801 105.342857,56.6959064 105.342857,63.9473684 C105.342857,78.8888889 96.9142857,91.4473684 76.7714286,95.0730994 C80.1285714,98.4649123 82.2142857,103.172515 82.2142857,108.377193 L82.2142857,124.824561 C82.3285714,126.140351 82.2142857,127.44152 84.3571429,127.44152 C109.657143,118.71345 127.871429,94.254386 127.871429,65.4385965 C127.871429,29.2982456 99.2428571,0.0438541745 63.9428571,0.0438541745 Z" id="路径"></path>
        </g>
    </g>
</svg>

<svg viewBox="0 0 128 128"><path fill-rule="nonzero" d="M63.943.044C28.614.029 0 29.298 0 65.424c0 28.567 17.9 52.85 42.829 61.769 3.357.863 2.842-1.579 2.842-3.246v-11.33C26.286 114.942 25.5 101.813 24.2 99.62c-2.629-4.59-8.843-5.76-6.986-7.953 4.415-2.325 8.915.584 14.129 8.465 3.771 5.716 11.128 4.751 14.857 3.8a18.55 18.55 0 0 1 4.957-8.888C31.071 91.36 22.7 78.816 22.7 63.904c0-7.237 2.329-13.89 6.9-19.255-2.914-8.845.271-16.418.7-17.544 8.3-.76 16.929 6.082 17.6 6.623 4.714-1.301 10.1-1.988 16.129-1.988 6.057 0 11.457.716 16.214 2.032 1.614-1.257 9.614-7.135 17.328-6.418.415 1.126 3.529 8.523.786 17.251 4.629 5.38 6.986 12.09 6.986 19.342 0 14.942-8.429 27.5-28.572 31.126a18.86 18.86 0 0 1 5.443 13.304v16.448c.115 1.315 0 2.617 2.143 2.617 25.3-8.729 43.514-33.188 43.514-62.003 0-36.14-28.628-65.395-63.928-65.395z"/></svg>
